X:1
T:Title
%%score { ( 1 4 ) | ( 2 3 ) }
L:1/8
Q:1/4=120
M:4/4
K:G
V:1 treble nm="Piano"
V:4 treble 
V:2 bass 
V:3 bass 
V:1
 !arpeggio![_EGAd]4 _e/a/d'/_e'/ a'2- | a'8 | .[Ee] z [B,B] z [Dd]>[Ee] z/ [^A,^A] x/ | %3
 [A,A] z .[G,G] z [A,A]>[E,E] z/ [^A,^A] x/ | %4
 [A,A]7/2 [G,G]/ [A,A]/[G,G]/[A,A]/[G,G]/ [A,A]/.[G,G][Ee]/- |: %5
 [Ee]2 [^CEG] z z/ [CEG]/ z [CEG]/[CEG]/ z | %6
 z!>)!!>(! !arpeggio![ee']3 z [^CEG]!>)!!>(! ^a/!>!g/!>)!!>(!=a | %7
!>(! g/!>)!!>(!e/^A- A/!>)!!>(!A/!>)!!>(!G/!>)!!>(!!>!E/ A2 A/4A/4B/4!>)!!>(!d/4B/4d/4B/4d/4!>)! | %8
 (B[^CEG]) z/ [CEG]/ z z [CEG]/[CEG]/ z!>)!!>(! .[Ee] | !>![Ee]2 [^CEG] z [CEG]/z[CEG]/ z [CEG] | %10
 z/ [^CEG]/z/[CEG]/ z [CEG] z/ [CEG]/ z z/ E,/!>![A,^D]/ x/ | %11
!>(! [B,E]2 [^CEG] z [CEG]/z[CEG]/ z [CEG]!>)! | [^CEG]/[CEG]/ z z/ [ea]2 | %13
 !>![Be]2 [^CEG] z [CEG]/z[CEG]/ z [CEG] | %14
 z/ [^CEG]/z/[CEG]/ z [CEG] z/ [CEG]/ z z/ (E,/!>)!!>(![A,B,D]/)!>![A,^D]/ | %15
!>(! [B,E]>[^CEG] z2 [CEG]/z[CEG]/ z [CEG]!>)! | %16
!>(! [A,CEG]2!>)!!>(! [B,DFA]2!>)!!>(! [CEB].A!>)!!>(! [^CEA]/.G!>)!!>(![B,E]/-!>)! | %17
 [B,E]/[B,E]/.[B,E] .[B,E].[B,E] .[B,E]B, B,>[CE]- | %18
 [CE]/[CE]/[CE] [CE][DF] [EG]>[CE]- [CE]>(([DF] | %19
 [DF]<))[DF] [A,D][A,D] B,2 [DFA]/[DFA]/[DFA]/[B,EA]/- | %20
 [B,EA][B,EG]/[B,EG]/ [B,EG]/.[B,EF][B,EG]/ z [ee'] z/ [ee']/ z/ [CE]/- | %21
 [CE]/[CE]/[CE] [CE][CE] !arpeggio![CEB][CE] [CE]2 | %22
 z/ [CE]/[CE]/[CE]/ [CE]/[CE]/[CE]/[CF]/ [CEB][CEA]/[CEG]/ z/ [CEA]/z/[^CEB]/- | %23
 [CEB]2 [^G,^CE]2 [A,CE]2 [CE][Ace]/ x/ | %24
 z/ .[GBd]/z/.[=FAc]/ z/ .[EGB]/z/.[FAc]/ z/ .[EGB]/z/.[DFA]/ z/ [CEG]/z/!>)!!>(!((([CEA]/ | %25
 [CEA]4)))!>)!!>(! [eac'e']!>)!!>(!!>)!!>(! [E,A,E]!>)!!>(! [E,A,E]!>)!!>(! [CEF]/!>)!!>(![CEG]/- | %26
 [CEG]/[CEG]/[CEG] [EG][DF] [B,DF]2 [B,D]>[B,DF]- | %27
 [B,DF]/[DF]/[DF]/[B,E]/ [DF]/.[B,E][B,EG]/- [B,EG]2 z/ .[B,E]/z/([B,E]/ | %28
 [B,E])E,/F,/ [G,B,]2 [F,^D]2 [A,F]>[G,E]- | %29
 [G,E]/[B,E]/[DF]/[DF]/ [EG][Ad]/[GB]/- [GB]2!>)!!>(! [B,E]/!>)!!>(![B,E]!>)!!>(![CE]/- | %30
 [CE]/[CE]/[CE] [EG].[DF] [B,DF]2 [B,D][EG]/([EG]/ | %31
 [EG]/)[DG]/[B,E]/[A,D]/ [B,E]/.[DF][^CE-]/ [CE]2 z/ [CE]/z/[G,=CE]/- | %32
 [G,CE]2 z/ .[G,CE]/z/[F,B,-^D-]/ [F,B,D]3 [F,B,D] | %33
 [G,B,E]B,/E,/ [B,E]/!>)!!>(![Ff]B/!>)!!>(! [GBg]2!>)!!>(! [Aa][B,E]/!>)!!>(!([CE]/ | %34
 [CE]/)[CE]/[CE] [EG].[DF] [B,DF]2 [B,D]>[B,DF]- | %35
 [B,DF]/[DF]/[DF]/[B,E]/ [DF]/.[B,E][B,EG]/- [B,EG]2 .[B,E]/.[B,E]/z/[B,E]/- | %36
 [B,E]E,/F,/ [G,B,]2 [F,^D]2 [A,F]([G,E]/ x/ | %37
 [G,E]/)[B,E]/[DF]/[DF]/ [EG][Ad]/[GB]/- [GB]2!>)!!>(! [B,E]/!>)!!>(![B,E]!>)!!>(![CE]/- | %38
 [CE]/[CE]/[CE] [EG].[DF] [B,DF]2 [B,D]>[B,E]- | [B,E]/[DG][DG][EA][GB][Ad][Be][E^A](([E=A]/ | %40
 [EA]7/2)) G/ [B,^DA]/G/A/G/ A/.G[B,E]/- |99 [B,E]2 [Bb]2 e''2 x/ ([^CE^A]2 [=CE=A]-) | %42
 [CEA]3 G/ [B,DA]/G/A/G/ x/ A/G!>![Ee]/ :|99 [B,E]4 e''2 x7/2 || %44
[K:bass] .E, z .B,, z D,>E, z/ ^A,,3/2 | .A,, z .A,,>G,, A,,/.G,,E,,/ z/ E,,/ z | %46
 .E, z .B,, z D,E,/ x/ z/ ^A,,3/2 | .A,, z .A,,>G,, A,,/.G,,E,,/ z/ G,, x/ | %48
 x z .[E,B,] z [A,DF]3/2[B,EG] z/ ^A,3/2 | .[E,A,] z .[E,A,]>G, A,/.G,E,/ z/ E,3/2 | %50
 [B,E]/.[E,B,]/[EG]/[EG]/ .[E,B,]/[EG]/[EG]/.[E,B,]/ [A,DF]>[B,EG] z/ ^A,3/2 | %51
 .A,[A,CEG] .[B,DF]/.[B,DF]/ z[K:treble] [G,G]/[A,A]/.[_B,_B]/.[B,B]/ z/ .[Ee]([Gceg]/ | %52
 [Gceg])[CEG]- [CEG]<[CEG] .e.=d _B/G/A/A/ | %53
 G/E/D/ z/ [EG]/[FA]/[GB]/4[Ac]/4[GB]/ [FA]>[GB] z3/2 [B,DF]/- | %54
 [B,DF].[B,DF] d/^c/B/^A/ =A/^G/=G/B/ A/G/F/E/ | %55
 D/B,/E/B,/ [A,D]/[A,D][A,D]/ ^A,/=A,/G,/E,/ A,/G,/E,/F,/ | .G,F,G,A, B,/D/E/4^D/4=D/4B,/4 DE | %57
 FGAB F/4G/4F/E D>(([^CEB] | [CEB]))^g/4=g/4f/4e/4 ^d/=d/^c/=c/ B/^A/=A/^c/ B/G/F/!>![=CE]/- | %59
 [CE]/!>)!!>(![D=F]!>)!!>(![EG][FA]!>![Ac]!>![ce]!>)!!>(![eg]!>)!!>(![=fa]!>)!!>(!([c-eg-b-]/ x3/2 | %60
 [cegb]8) | [CEG]3 e e2 B>[Ge]- | [Ge]2 [Af]2 [Bg]2 [ca]>[Af]- | [Af] [Fd]3 z2 [Aa]2 [Aa]2 | %64
 [Aa]>[Bb]- [Bb][cc'] [Bb]>[Aa]- [Aa](([Aa] | [Aa])) [Gceg]2 E/4G/4c/4e/4 g2 [Ge][Ge] | %66
 [Ada]3 [B,DF]- [B,DF][Geg]- [Geg]<[Afa] | [Be^gb]2 [E^G]>[EG]- [EG]E- E<B, | %68
 [A,C].[G,B,][A,C].[EG] [D=F][CE].[B,D][CE] |!>(! [CE]8!>)! | %70
!>(! [E,A,]!>)!!>(![E,A,] z!>)!!>(! [E,A,]!>)!!>(! [E,A,]!>)!!>(! a'2 !>![CEF]/!>)!!>(![CEG]/-!>)! | %71
 [CEG]/[CEG]/[CEG] [EG].[DF] [B,DF]2 [B,D]>((([B,DF] | %72
 [B,DF]/)))[DF]/[DF]/[B,E]/ [DF]/.[B,E][B,EG]/- [B,EG]2 z/ .[B,E]/z/[B,E]/- | %73
 [B,E]E,/F,/ [G,B,]2 [F,^D]2 [A,F]>[G,E]- | %74
 [G,E]/[B,E]/[DF]/[DF]/ [EG][Ad]/[GB]/- [GB]2 !>![B,E]/!>)!!>(![B,E]!>)!!>(!([CE]/ | %75
 [CE]/)[CE]/[CE] [EG].[DF] [B,DF]2 [B,D][EG]/[EG]/- | %76
 [EG]/[DG]/[B,E]/[A,D]/ [B,E]/.[DF][^CE-]/ [CE]2 z/ [CE]/z/[G,=CE]/- | %77
 [G,CE]2 z/ .[G,CE]/z/[F,B,^D]/- [F,B,D]3 [F,B,D] | %78
 [G,B,E]B,/E,/ [B,E]/!>)!!>(![Ff]B/ !>![GBg]2!>)!!>(! [Aa][B,E]/!>)!!>(![CE]/- | %79
 [CE]/[CE]/[CE] [EG].[DF] [B,DF]2 [B,D]>[B,DF]- | %80
 [B,DF]/[DF]/[DF]/[B,E]/ [DF]/.[B,E][B,E-G-]/ [B,EG]2 .[B,E]/.[B,E]/z/([B,E]/ | %81
 [B,E])E,/F,/ [G,B,]2 [F,^D]2 [A,F]>[G,E]- | %82
 [G,E]/[B,E]/[DF]/[DF]/ [EG][Ad]/[GB]/- [GB]2 !>![B,E]/!>![B,E]!>![CE]/- | %83
 [CE]/[CE]/[CE] [EG].[DF] [B,DF]2 [B,D]>([B,E] | [B,E]/)[DG][DG][EA][GB][Ad][Be][E^A][E=A]/- | %85
 [EA]7/2 G/ [B,^DA]/G/A/G/ A/.G[B,E]/- | [B,E]2 [Bb]2 e''2 x/ ([^CE^A]2 ((([=CE=A]) | %87
 [CEA]7/2))) G/ [B,DA]/G/A/G/ A/.G!>)!!>(![Ee]/- | [Ee]>E, z .E, z/ E,/z/E,/ z3/2 G,/ | %89
 .E,>E, z/ .E,/ z E/D/B,/A,/ B,/A,/G,/E,/ |] %90
V:2
 !arpeggio![=F,,C,_E,G,]4 [F,F,]4 | F,8 | .E, z .B,, z D,>E, z/!ped! ^A,,3/2 | %3
 .A,, z G,, z A,,>E,, z/ ^A,,3/2 | %4
!>(! [C,,,C,,][C,,C,]- [C,,C,]/[C,,C,][C,,C,]/ [B,,,B,,]!>!B,,,/!>)!!>(!B,,/- B,,/!>)!!>(!B,,,/!>)!!>(!B,,/!>!B,,,/!>)! |: %5
!>(! [E,,,E,,]D,,/!>!E,,/ z/ E,,,/!>!B,,,/!>)!!>(!^C,,/ E,,/E,,,/!>!E,,/!>)!!>(!G,,/ z/ D,,/G,,/!>!E,,/!>)! | %6
!>(! E,,,D,,/!>!E,,/ z/ E,,,/!>!B,,,/!>)!!>(!^C,,/ E,,/E,,,/!>)!!>(!A,,,!>)!!>(! B,,,/E,,,/!>!B,,,/!>)!!>(!C,,/!>)! | %7
 !>![E,,,E,,]G,,,/!>)!!>(!E,,,/ z/ E,,,/!>)!!>(!B,,,/!>)!!>(!^C,,/ E,,,/C,,/D,,/G,,,/ z/ D,,/G,,/!>)!!>(!E,,/ | %8
!>(! [E,,,E,,]D,,/!>)!!>(!E,,/ z/ E,,,/!>)!!>(!!>)!!>(!C,,/ E,,/E,,,/!>)!!>(!E,,/!>)!!>(!G,,/ x/ z/ D,,/G,,/!>)!!>(!E,,/!>)! | %9
 !>![E,,,E,,]D,,/!>)!!>(!E,,/ z/ E,,,/!>)!!>(!B,,,/E,,,/!>)!!>(! ^C,,/E,,,/!>!D,,/!>)!!>(!G,,/ z/ E,,/!>!D,,/!>)!!>(!E,,/ | %10
!>(! [E,,,E,,]D,,/!>)!!>(!E,,/ z/ E,,,/!>)!!>(!B,,,/E,,,/!>)!!>(! ^C,,/E,,,/G,,,/!>)!!>(!D,,/ z/ G,,,/!>)!!>(!C,,/G,,,/!>)! | %11
!>(! [E,,,E,,]D,,/!>)!!>(!E,,/ z/ E,,,/!>)!!>(!B,,,/E,,,/!>)!!>(! ^C,,/E,,,/!>!D,,/!>!G,,/ z/ E,,/E,,,/E,,/!>)! | %12
!>(! D,,/(!>!G,,/!>)!!>(!C,,/) A,,,/ !>!G,,/!>)!!>(! C,,/ x3/2 | x7/2!>)! %13
 !>![E,,,E,,]D,,/!>)!!>(!E,,/ z/ E,,,/!>)!!>(!B,,,/E,,,/!>)!!>(! ^C,,/E,,,/!>)!!>(!G,,,/!>)!!>(!C,,/ z/ D,,/!>)!!>(!C,,/!>)!!>(!G,,,/ | %14
 !>!E,,,!>!E,,/!>)!!>(!E,,,/ z/ E,,,/!>)!!>(!B,,,/E,,,/!>)!!>(! D,,/E,,,/G,,,/!>)!!>(!D,,/ z/!>)!!>(! ^C,,/!>)!!>(!G,,,/!>)!!>(!A,,,/ | %15
 !>![E,,,E,,]D,,/!>!E,,/ z/ E,,,/!>)!!>(!^C,,/E,,,/!>)!!>(! D,,/C,,/!>)!!>(!E,,,/!>)!!>(!G,,,/ z/!>)!!>(! E,,,/!>)!!>(!A,,,/!>)!!>(!B,,,/ | %16
!>(! A,,,2 !>!B,,,2!>)!!>(! [A,,,A,,]!>!E,,/!>)!!>(!A,,,/!>)!!>(! ^C,,>!>!=C,,-!>)! | %17
 C,,!>)!!>(!C,,,/!>)!!>(!C,,/ z/ C,,/!>)!!>(!G,,/!>)!!>(!A,,/ C,,/[C,E,]C,,/- C,,/G,,/E,,/!>)!!>(![A,,,A,,]/- | %18
 [A,,,A,,]/A,,,/E,,/G,,/ z/ A,,,/E,,/A,,,/!>)!!>(! G,,/E,,/A,,,/E,,/!>)!!>(! A,,/E,,/A,,,/!>)!!>(!([B,,,B,,]/ | %19
 [B,,,B,,]/)B,,,/F,,/B,,,/ z/!>)!!>(! F,,/!>)!!>(!G,,/!>!A,,/ D,,/B,,,/E,/!>)!!>(!D,/- D,/B,,/A,,/!>)!!>(!E,,/- | %20
 E,,/E,,,/D,,/E,,/!>)!!>(! B,,,/E,,,/D,,/E,,,/!>)!!>(! E,,/D,,/^A,,,/=A,,,/!>)!!>(! G,,,/E,,,/G,,,/!>)!!>(!A,,,/- | %21
 A,,,E,,/A,,/ z/ B,,/G,/C,/ F,/zD,/- D,/E,/A,,/!>)!!>(!B,,/ | %22
 B,,E,,/!>)!!>(!A,,/- A,,/F,,/D,,/!>)!!>(!A,,,/- A,,,/E,,/A,,/E,,/ B,,/!>!E,,/A,,/!>)!!>(!F,,/- | %23
 F,,/F,,,/F,,/F,,,/ ^G,,/^G,,,/G,,/G,,,/ A,,/A,,,/A,,/A,,,/ ^C,/^C,,/C,/[=C,,=C,]/ | %24
 z/ .[B,,,B,,]/z/[A,,,A,,]/ z/ .[G,,,G,,]/z/[=F,,,=F,,]/ z/ .[E,,,E,,]/z/[D,,,D,,]/ z/ .[C,,,C,,]/z/!>)!!>(!([F,,,F,,]/ | %25
 [F,,,F,,]/)C,,/G,,/C,/ =F,/C,/G,/C/ [C=FA] !>![=F,,,=F,,]!>)!!>(! [F,,,F,,] z/!>)!!>(! [C,,C,]/- | %26
 [C,,C,]/C,,/G,,/C,,/ C,/C,,/C,/G,,/ [B,,,B,,]F,,/B,,/ B,,,/D,,/F,,/!>)!!>(!E,,/- | %27
 E,,/E,,,/D,,/E,,/!>)!!>(! F,,/D,,/E,,,/!>)!!>(!G,,/- G,,/E,,/B,,,/A,,/ B,,/A,,/G,,/!>)!!>(!C,,/ | %28
 C,,/C,,/G,,/A,,/ B,,/A,,/G,,/C,,/ [B,,,B,,]F,,/B,,,/- B,,,/D,,/F,,/!>)!!>(!E,,/- | %29
 E,,/E,/B,,/E,,/ D,/G,,!>)!!>(!E,,/- E,,/B,,,/D,,/E,,/ !>![E,,E,]/!>)!!>(![E,,E,]!>)!!>(![C,,C,]/- | %30
 [C,,C,]/C,,/G,,/C,,/ C,/C,,/C,/G,,/ [B,,,B,,]B,,/F,,/ B,,,/D,,/F,,/!>)!!>(!E,,/ | %31
 E,,/E,,,/D,,/E,,/ F,,/D,,/B,,/B,,,/ !>!A,,/E,,/^C,/D,/ C,/A,,/E,,/!>)!!>(![=C,,=C,]/- | %32
 [C,,C,]/C,,/G,,/A,,/ B,,/A,,/G,,/!>![B,,,B,,-]/ [B,,,B,,]/B,,,/B,,/F,,/ B,,,/F,,/B,,/!>)!!>(!B,,,/ | %33
!>(! E,,B,,,/E,,,/ B,,,/F,,/B,,,/E,,,/ B,,,/G,,/B,,,/G,,,/ G,,/F,,/E,,/!>)!!>(!C,,/!>)! | %34
 C,,/C,,/G,,/C,,/ C,/C,,/C,/G,,/ [B,,,B,,]F,,/B,,/ B,,,/D,,/F,,/!>)!!>(!E,,/- | %35
 E,,/E,,,/D,,/E,,/ !>!F,,/B,,,/E,,,/!>)!!>(!G,,/- G,,/E,,/B,,,/A,,/ G,,/F,,/E,,/!>)!!>(!C,,/- | %36
 C,,/C,,/G,,/A,,/ B,,/A,,/G,,/C,,/ [B,,,B,,]B,,/B,,,/- B,,,/D,,/F,,/!>)!!>(!E,,/ | %37
 E,,/E,/!>(!B,,/E,,/ D,/G,,!>)!!>(!E,,/- E,,/B,,,/D,,/E,,/!>)!!>(! [E,,E,]/!>)!!>(![E,,E,]!>)!!>(![C,,C,]/-!>)! | %38
 [C,,C,]/C,,/G,,/C,,/ C,/C,,/C,/G,,/ [B,,,B,,]B,,/F,,/ B,,,/D,,/F,,/!>!E,,/- | %39
 E,,/E,,,/B,,,/E,,,/ B,,,/D,,G,,/ G,,,/A,,,/B,,,/^C,,/ D,,/^D,,!>)!!>(!(([=C,,C,]/ | %40
 [C,,C,]))C,/G,,/ C,/C,,/G,,/C,/ [B,,,B,,]B,,/F,,/ B,,/B,,,/B,,/!>)!!>(!E,,/- |99 %41
 E,,/E,,/B,,/B,,,/ D,/E,/E,,/^A,,/ =A,,/B,,/D,,/E,,/ B,,,/^C,,[=C,,=C,]/- x3/2 | %42
 [C,,C,]4 B,,/B,,,/B,,/B,,,/ B,,/B,,,E,,/ :|99 %43
 E,,,/E,,/B,,/E,,/ D,/E,/B,,,/B,,/ A,,/B,,/G,,/A,,/ D,,/E,,/B,,,/E,,/- x3/2 || E,,8- | E,,4 x4 | %46
 [E,,,E,,]2 B,,,2 D,,>E,, z/ ^A,,,3/2 | A,,, z A,,,>G,,, A,,,/G,,,/E,,,/B,,,/ D,,/E,,/A,,,/B,,,/ | %48
 E,,,/E,,/G,,/A,,/ G,,E,,,/E,,/ D,,>E,, E,,,<^A,, x/ | %49
 A,,,/E,,/G,,/A,,/ G,,A,,,/A,,/ E,,/B,,^A,,/ z/ =A,,/G,,/E,,/ | %50
 E,,,/E,,/G,,/A,,/ G,,E,,,/E,,/ D,,>E,, E,,,<^A,, | %51
 [A,,,A,,]/E,,/A,,,/E,,/ [B,,,B,,]/F,,/B,,,/F,,/ [_B,,,_B,,]/=F,,/B,,,/[_D,,_D,]/ z/ [D,,D,]/_A,,/([C,,C,]/ | %52
 [C,,C,]/)C,,/G,,/C,,/ [C,,C,]>C,, [C,,C,]/C,,/G,,/C,,/ [C,,C,]C,,/[A,,,A,,]/- | %53
 [A,,,A,,]/A,,,/E,,/A,,,/ [A,,,A,,]>A,,, E,,/[A,,,A,,]E,,/ [A,,,A,,]/A,,,[B,,,B,,]/- | %54
 [B,,,B,,][B,,,B,,] z/ B,,/F,,/B,,,/ .[B,,,B,,][A,,,A,,] [B,,,B,,]/[B,,,B,,]E,,/ | %55
 E,,,/E,,/B,,/E,,/ E,/E,,/E,,/E,/ E,/B,,/E,, E,,/E,,[A,,,A,,]/- | %56
 [A,,,A,,]/A,,,/E,,/A,,,/ A,,/E,,A,,,/ E,,/A,,E,,/ E,/E,,[B,,,B,,]/- | %57
 [B,,,B,,]/B,,,/F,,/B,,,/ D,/F,,B,,,/ F,,/D,/A,,/B,,/ D,/D,,(([F,,,F,,]/ | %58
 [F,,,F,,]))F,,, ^G,,/^C,,/F,,,/G,,/ C,,/G,,C,,/ F,,,/C,,/F,,/F,,/- | %59
 F,,/!>)!!>(!E,,!>)!!>(!E,,!>!=F,,!>)!!>(!E,,!>)!!>(!D,,!>)!!>(!C,,!>!A,,,F,,/- x3/2 | F,,8 | G,8 | %62
 !arpeggio![A,,G,C]4 A,,2 A,,2 | [B,,A,D]4 [A,D]4 x2 | !arpeggio![E,,B,,D,A,]>G, G,F, G,2 D,2 | %65
 [A,,,A,,]>A,,,- [A,,,A,,]2 [A,,,A,,]2 A,,,>A,,, | %66
 [B,,,B,,]>B,,,- [B,,,B,,]2 [B,,,B,,]>[B,,,B,,]- [B,,,B,,]<[B,,,B,,] | %67
 [F,,,F,,]2 [F,,,F,,]>^C,, [F,,,F,,]F,,,/C,,/ F,,<F,,, | =F,,8 | %69
!>(! [=F,,,C,,=F,,]!>)!!>(![F,,,C,,F,,]/!>)!!>(![F,,,C,,F,,]/- [F,,,C,,F,,]/!>![F,,,C,,F,,]/!>![F,,,C,,F,,]/!>)!!>(![F,,,C,,F,,]/!>)!!>(! [F,,,C,,F,,]/!>![F,,,C,,F,,]/!>![F,,,C,,F,,]/!>![F,,,C,,F,,]/!>)!!>(! [F,,,C,,F,,]/!>)!!>(![F,,,C,,F,,]/!>)!!>(![F,,,C,,F,,]/!>![F,,,C,,F,,]/!>)! | %70
!>(! [=F,,,=F,,]!>)!!>(![F,,,F,,] z !>![F,,,F,,] !>![F,,,F,,]!>)!!>(! F,,,/!>)!!>(!C,,/!>)!!>(!A,,/!>)!!>(!C,,/!>)!!>(!G,,/!>)!!>(!C,,/-!>)! | %71
 C,,/C,,/G,,/C,,/ C,/C,,/C,/G,,/ [B,,,B,,]F,,/B,,/ B,,,/D,,/F,,/!>)!!>(!E,,/ | %72
 E,,/E,,,/D,,/E,,/!>)!!>(! F,,/D,,/E,,,/!>!G,,/- G,,/E,,/B,,,/A,,/ B,,/A,,/G,,/!>)!!>(!C,,/- | %73
 C,,/C,,/G,,/A,,/ B,,/A,,/G,,/C,,/ [B,,,B,,]F,,/B,,,/- B,,,/D,,/F,,/!>)!!>(!E,,/- | %74
 E,,/E,/B,,/E,,/ D,/G,,!>)!!>(!E,,/- E,,/B,,,/D,,/E,,/!>)!!>(! [E,,E,]/!>![E,,E,]!>)!!>(!([C,,C,]/ | %75
 [C,,C,]/)C,,/G,,/C,,/ C,/C,,/C,/G,,/ [B,,,B,,]B,,/F,,/ B,,,/D,,/F,,/!>)!!>(!E,,/- | %76
 E,,/E,,,/D,,/E,,/ F,,/D,,/B,,/B,,,/!>)!!>(! A,,/E,,/^C,/D,/ C,/A,,/E,,/!>)!!>(![=C,,=C,]/- | %77
 [C,,C,]/C,,/G,,/A,,/ B,,/A,,/G,,/!>)!!>(![B,,,B,,]/- [B,,,B,,]/B,,,/B,,/F,,/ B,,,/F,,/B,,/!>)!!>(!B,,,/ | %78
!>(! E,,B,,,/E,,,/ B,,,/F,,/B,,,/E,,,/ B,,,/G,,/B,,,/G,,,/ G,,/F,,/E,,/!>!C,,/-!>)! | %79
 C,,/C,,/G,,/C,,/ C,/C,,/C,/G,,/ [B,,,B,,]F,,/B,,/ B,,,/D,,/F,,/!>)!!>(!E,,/- | %80
 E,,/E,,,/D,,/E,,/!>)!!>(! F,,/B,,,/E,,,/!>)!!>(!G,,/- G,,/E,,/B,,,/A,,/ G,,/F,,/E,,/!>)!!>(!(C,,/ | %81
 C,,/)C,,/G,,/A,,/ B,,/A,,/G,,/C,,/ [B,,,B,,]B,,/B,,,/- B,,,/D,,/F,,/!>)!!>(!E,,/- | %82
 E,,/E,/B,,/E,,/ D,/G,,!>)!!>(!E,,/- E,,/B,,,/D,,/E,,/ !>![E,,E,]/!>)!!>(![E,,E,]!>)!!>(![C,,C,]/- | %83
 [C,,C,]/C,,/G,,/C,,/ C,/C,,/C,/G,,/ [B,,,B,,]B,,/F,,/ B,,,/D,,/F,,/!>)!!>(!E,,/ | %84
 E,,/E,,,/B,,,/E,,,/ B,,,/D,,G,,/ G,,,/A,,,/B,,,/^C,,/ D,,/^D,,!>)!!>(![A,,,A,,]/- | %85
 [A,,,A,,]A,,/E,,/ A,,/A,,,/E,,/A,,/ [B,,,B,,]B,,/F,,/ B,,/B,,,/B,,/!>)!!>(!E,,/- | %86
 E,,/E,,/B,,/B,,,/ D,/E,/E,,/^A,,/ =A,,/B,,/D,,/E,,/ B,,,/^C,,([=C,,=C,]/ x3/2 | %87
 [C,,C,]4) B,,/B,,,/B,,/B,,,/ B,,/B,,,E,,/ | %88
 E,,,E,,,/B,,,/ D,,/E,,,/E,,/E,,,/ B,,,/E,,,/B,,,/D,,/ D,,/E,,/G,,,/A,,,/ | %89
 E,,,E,,,/B,,,/ D,,/E,,,/E,,/E,,,/ E,,/D,,/B,,,/A,,,/ B,,,/A,,,/G,,,/E,,,/ |] %90
V:3
 x4 !arpeggio![CD_E-G-]4 | [CEG]8 | x8 | x8 | x8 |: x8 | x8 | x8 | x8 | x8 | x8 | x8 | x9/2 | x8 | %14
 x8 | x8 | x8 | x8 | x8 | x8 | x8 | x8 | x8 | x8 | x8 | x8 | x8 | x8 | x8 | x8 | x8 | x8 | x8 | %33
 x8 | x8 | x8 | x8 | x8 | x8 | x8 | x8 |99 x19/2 | x8 :|99 x15/2 E,,,2- || E,,,8 | %45
 E,,,4- [E,,,E,,]>[E,,,E,,] z/ [E,,,E,,]B,,,/ | x8 | x8 | x17/2 | x8 | x8 | x8 | x8 | x8 | x8 | %55
 x8 | x8 | x8 | x8 | x15/2 !>!=F,,,2- | F,,,8 | C,8 | x8 | x10 | x8 | x8 | x8 | x8 | =F,,,8 | x8 | %70
 x8 | x8 | x8 | x8 | x8 | x8 | x8 | x8 | x8 | x8 | x8 | x8 | x8 | x8 | x8 | x8 | x19/2 | x8 | x8 | %89
 x8 |] %90
V:4
 x8 | x8 | x8 | x8 | x8 |: x8 | x8 | x8 | x8 | x8 | x8 | x8 | x9/2 | x8 | x8 | x8 | x8 | x8 | x8 | %19
 x8 | x8 | x8 | x8 | x8 | x8 | x8 | x8 | x8 | x8 | x8 | x8 | x8 | x8 | x8 | x8 | x8 | x8 | x8 | %38
 x8 | x8 | x8 |99 x19/2 | x8 :|99 x19/2 ||[K:bass] x8 | x8 | x8 | x8 | x17/2 | x8 | x8 | %51
 x4[K:treble] x4 | x8 | x8 | x8 | x8 | x8 | x8 | x8 | x19/2 | x8 | x8 | x8 | x10 | x8 | x8 | x8 | %67
 x8 | x8 | %69
 [E,A,]!>)!!>(![E,A,]/!>)!!>(![E,-A,]/ [E,A,]/!>)!!>(![E,A,]/!>)!!>(![E,A,]/!>)!!>(![E,A,]/!>)!!>(! [E,A,]/!>)!!>(![E,A,]/!>)!!>(![E,A,]/!>)!!>(![E,A,]/!>)!!>(! [E,A,]/!>)!!>(![E,A,]/!>)!!>(![E,A,]/!>)!!>(![E,A,]/ | %70
 x8 | x8 | x8 | x8 | x8 | x8 | x8 | x8 | x8 | x8 | x8 | x8 | x8 | x8 | x8 | x8 | x19/2 | x8 | x8 | %89
 x8 |] %90

